!!!COM:      Bach, Johann Sebastian
!!!CDT:      1685/03/31/-1750/07/28/
!!!OPR@@GER: Das wohltemperirte Clavier
!!!OVM@@GER: Band II
!!!OPR@ENG:  Well-Tempered Clavier
!!!OVM@ENG:  Book II
!!!OTL:      Fugue
!!!OKY:      F minor
!!!ONM:      no. 12
!!!SCT:      BWV 881
!!!OMV:      2
**kern	**kern	**kern
*clefF4	*	*clefG2
*k[b-e-a-d-]	*	*k[b-e-a-d-]
*f:	*	*f:
*M2/4	*	*M2/4
*MM76	*MM76	*MM76
=1-	=1-	=1-
8r	8ryy	8cc
=2	=2	=2
2r	2ryy	8fM
.	.	8f
.	.	8f
.	.	16dd-
.	.	16b-
=3	=3	=3
2r	2ryy	8en
.	.	8e
.	.	16e
.	.	16f
.	.	16g
.	.	16a-
=4	=4	=4
2r	2ryy	16b-
.	.	16a-
.	.	16g
.	.	16a-
.	.	16b-
.	.	16dd-
.	.	16cc
.	.	16b-
=5	=5	=5
*	*staff:14	*
*	*clefG2	*
*	*k[b-e-a-d-]	*
2r	4r	16a-
.	.	16g
.	.	16f
.	.	16g
.	8r	16a-
.	.	16b-
.	8f	16cc
.	.	16ddn
=6	=6	=6
2r	8c	16ee-
.	.	16ddn
.	8c	16cc
.	.	16dd
.	8c	16ee-
.	.	16gg
.	16a-	16ff
.	16f	16ee-
=7	=7	=7
2r	8Bn	16ddn
.	.	16cc
.	8B	16bn
.	.	16an
.	16B	16g
.	16c	16a
.	16dn	16b
.	16e-	16cc
=8	=8	=8
2r	16f	8ddn
.	16e-	.
.	16dn	8ff
.	16e-	.
.	16f	8aa-
.	16a-	.
.	16g	8bn
.	16f	.
=9	=9	=9
2r	16e-	8cc
.	16dn	.
.	16c	8ee-
.	16d	.
.	16e-	8gg
.	16f	.
.	16g	8ccc
.	16an	.
=10	=10	=10
2r	16b-	8dd-X
.	16a-X	.
.	16g	8ccc
.	16f	.
.	16g	8bb-
.	16b-	.
.	16a-	8dd-
.	16g	.
=11	=11	=11
2r	16a-	8cc
.	16b-	.
.	16cc	8ee-
.	16b-	.
.	16a-	8aa-
.	16g	.
.	16f	8cc
.	16e-	.
=12	=12	=12
4r	16dn	8b-
.	16f	.
.	16en	8aa-
.	16d	.
8r	16e	8gg
.	16g	.
8c	16f	8b-
.	16e	.
=13	=13	=13
8F	8f	16a-
.	.	16cc
8F	8r	16ff
.	.	16ee-
8F	16r	[4dd-
.	16cc	.
16d-	16b-	.
16B-	16a-	.
=14	=14	=14
8En	4g	16dd-]
.	.	16cc
8E	.	16b-
.	.	16a-
16E	16r	[4g
16F	16f	.
16G	16en	.
16A-	16dn	.
=15	=15	=15
16B-	4.en	8g]
16A-	.	.
16G	.	8dd-
16A-	.	.
16B-	.	[4cc
16d-	.	.
16c	8e	.
16B-	.	.
=16	=16	=16
16A-	[4f	8cc]
16G	.	.
16F	.	8dd-
16G	.	.
16A-	16f]	[4cc
16c	16a-	.
16B-	16g	.
16A-	16f	.
=17	=17	=17
16G	16en	8cc]
16F	16g	.
16En	[8b-	8dd-
16F	.	.
16G	16b-]	[4cc
16B-	16g	.
16A-	16f	.
16G	16en	.
=18	=18	=18
16F	8a-	8cc]
16A-	.	.
16c	8a-	8cc
16f	.	.
16c	[4a-	8cc
16A-	.	.
16F	.	8aa-
16A-	.	.
=19	=19	=19
8D-	2a-]	16b-
.	.	16cc
8F	.	16dd-
.	.	16cc
8D-	.	16b-
.	.	16cc
8BB-	.	16dd-
.	.	16cc
=20	=20	=20
16E-	8g	8b-
16G	.	.
16B-	8g	8b-
16e-	.	.
16B-	[4g	8b-
16G	.	.
16E-	.	8gg
16G	.	.
=21	=21	=21
8C	2g]	16a-
.	.	16b-
8E-	.	16cc
.	.	16b-
8C	.	16a-
.	.	16b-
8AA-	.	16cc
.	.	16b-
=22	=22	=22
16D-	8f	8a-
16E-	.	.
16F	8f	8a-
16E-	.	.
16D-	4f	8a-
16C	.	.
16BB-	.	[8dd-
16AA-	.	.
=23	=23	=23
8GG	8e-	16dd-]
.	.	16f
8BB-	8r	16g
.	.	16a-
8GG	4r	16b-
.	.	16cc
8EE-	.	16dd-
.	.	16b-
=24	=24	=24
8AA-	2r	16cc
.	.	16dd-
8GG	.	16b-
.	.	16cc
8FF	.	16dd-
.	.	16cc
8Dn	.	16b-
.	.	16a-
=25	=25	=25
8E-	2ryy	16g
.	.	16a-
8EE-	.	16b-
.	.	16g
16r	.	8e-
16d-	.	.
16c	.	8ee-
16B-	.	.
=26	=26	=26
16c	2ryy	8a-M
16e-	.	.
16c	.	8a-
16A-	.	.
16F	.	8a-
16e-	.	.
16d-	.	16ff
16c	.	16dd-
=27	=27	=27
16B-	2ryy	8g
16d-	.	.
16B-	.	8g
16G	.	.
16E-	.	16g
16c	.	16a-
16B-	.	16b-
16A-	.	16cc
=28	=28	=28
16G	2ryy	16dd-
16A-	.	16cc
16G	.	16b-
16F	.	16cc
16E-	.	16dd-
16D-	.	16ff
16C	.	16ee-
16BB-	.	16dd-
=29	=29	=29
*	*staff:6	*
8AA-	4r	16cc
.	.	16b-
8A-	.	16a-
.	.	16g
8G	8r	16a-
.	.	16b-
8F	8a-	16cc
.	.	16ddn
=30	=30	=30
16c	8e-	4.ee-
16B-	.	.
16c	8e-	.
16d-	.	.
16c	8e-	.
16B-	.	.
16A-	16cc	8ee-
16G	16a-	.
=31	=31	=31
4F	8dn	16aa-
.	.	16gg
.	8d	16aa-
.	.	16bb-
[4B-	16d	16aa-
.	16e-	16gg
.	16f	16ff
.	16g	16ee-
=32	=32	=32
8B-]	16a-	[2ddn
.	16g	.
16A-	16f	.
16G	16g	.
16F	16a-	.
16E-	16cc	.
16Dn	16b-	.
16C	16a-	.
=33	=33	=33
8BBn	[2g	16dd]
.	.	16cc
8Dn	.	16bn
.	.	16cc
8BB	.	16ddn
.	.	16ff
8GG	.	16ee-
.	.	16dd
=34	=34	=34
16C	8g]	8ee-
16E-	.	.
16G	8g	8ee-
16c	.	.
16G	8g	[4ee-
16E-	.	.
16C	8ee-	.
16E-	.	.
=35	=35	=35
8AA-	16f	2ee-]
.	16g	.
8C	16a-	.
.	16g	.
8AA-	16f	.
.	16g	.
8FF	16a-	.
.	16g	.
=36	=36	=36
16BB-	8f	8ddn
16Dn	.	.
16F	8f	8dd
16B-	.	.
16F	8f	[4dd
16D	.	.
16BB-	8ddn	.
16D	.	.
=37	=37	=37
8GG	16e-	2dd]
.	16f	.
8BB-	16g	.
.	16f	.
8GG	16e-	.
.	16f	.
8EE-	16g	.
.	16f	.
=38	=38	=38
16AA-	8e-	8cc
16BB-	.	.
16C	8e-	8cc
16BB-	.	.
16AA-	8e-	8cc
16GG	.	.
16FF	[8a-	8ff
16EE-	.	.
=39	=39	=39
8DDn	8.a-]	16bn
.	.	16cc
8C	.	4.ddn
.	16a-	.
8BBn	16g	.
.	16f	.
8GG	16e-	.
.	16dn	.
=40	=40	=40
8C	8.e-	16r
.	.	16g
8AA-	.	[8cc
.	16e-	.
8FF	8dn	16cc]
.	.	8cc
8GG	[8f	.
.	.	16bn
=41	=41	=41
4CC	16f]	4cc
.	16f	.
.	16en	.
.	16dn	.
8r	16e	8r
.	[8.g	.
8c	.	16cc
.	.	16b-X
=42	=42	=42
8F	16g]	4a-
.	16g	.
8F	16f	.
.	16en	.
8F	4f	16r
.	.	16a-
16d-	.	16b-
16B-	.	[16dd-
=43	=43	=43
8En	4g	16dd-]
.	.	16dd-
8E	.	16cc
.	.	16b-
16E	8r	[4gg
16F	.	.
16G	8een	.
16A-	.	.
=44	=44	=44
16B-	8dd-	4.gg]
16A-	.	.
16G	8b-	.
16A-	.	.
16B-	4g	.
16d-	.	.
16c	.	8een
16B-	.	.
=45	=45	=45
16A-	16r	8ff
16G	16b-	.
16F	16a-	8r
16G	16g	.
16A-	16f	4r
16B-	16g	.
16c	16a-	.
16d-	16b-	.
*clefG2	*	*
=46	=46	=46
16e-	8cc	4r
16d-	.	.
16c	8ee-	.
16d-	.	.
16e-	[4gg-	8r
16g-	.	.
16f	.	8aan
16e-	.	.
=47	=47	=47
16d-	8gg-]	8bb-
16c	.	.
16B-	8an	8ee-
16c	.	.
16d-	8b-	8dd-
16e-	.	.
16f	8dd-	[8bb-
16gn	.	.
=48	=48	=48
16a-	8cc	8bb-]
16b-	.	.
16a-	8r	16ccc
16g	.	16bb-
16f	4r	16aa-
16e-	.	16gg
16d-	.	16ff
16c	.	16een
=49	=49	=49
16d-	8r	[2ff
16e-	.	.
16d-	8a-	.
16c	.	.
*clefF4	*	*
16B-	8dd-	.
16A-	.	.
16G	8cc	.
16F	.	.
=50	=50	=50
16G	8b-	8ff]
16A-	.	.
16G	8r	16bb-
16F	.	16aa-
16En	4r	16gg
16Dn	.	16ff
16C	.	16een
16BBn	.	16ddn
=51	=51	=51
*	*staff:11	*
*	*clefF4	*
8C	8r	16een
.	.	16ff
8C	16G	16ee
.	16A-	16ddn
8C	8B-	16cc
.	.	16b-
8r	8c	16a-
.	.	16g
=52	=52	=52
8C	8F	16a-
.	.	16f
8C	8F	16a-
.	.	16cc
8C	8F	16ff
.	.	16cc
8r	16d-	16b-
.	16B-	16a-
=53	=53	=53
8C	8En	16b-
.	.	16g
8C	8E	16b-
.	.	16een
8C	16E	16gg
.	16F	16ff
8r	16G	16een
.	16A-	16ddn
=54	=54	=54
2r	16B-	16cc
.	16A-	16ddn
.	16G	16een
.	16A-	16gg
.	16B-	16ccc
.	16d-	16bb-
.	16c	16aa-
.	16B-	16gg
=55	=55	=55
[2D-	8A-	16ff
.	.	16gg-
.	8An	16ff
.	.	16ee-
.	8B-	16dd-
.	.	16cc
.	8c	16b-
.	.	16an
=56	=56	=56
*	*staff:10	*
*	*clefG2	*
16D-]	8d-	8b-
16E-	.	.
16D-	8r	8f
16C	.	.
16BB-	8r	[4dd-
16AA-	.	.
16GG-	16b-	.
16FF	16a-	.
=57	=57	=57
8EE-	8g-	16dd-]
.	.	[8.dd-
8EE-	16g-	.
.	16f	.
8EE-	8g-	16dd-]
.	.	[8.dd-
16E-	16g-	.
16C	16f	.
=58	=58	=58
8AAn	8g-	16dd-]
.	.	[8.cc
8AA	16e-	.
.	16d-	.
8AA	8e-	16cc]
.	.	[8.cc
16G-	16e-	.
16E-	16d-	.
=59	=59	=59
8C	[2e-	16cc]
.	.	16b-
8C	.	16an
.	.	16g
8C	.	16a
.	.	16b-
16B-	.	[8cc
16An	.	.
=60	=60	=60
[2B-	16e-]	8cc]
.	16c	.
.	16d-	16b-
.	16f	16an
.	16e-	8b-
.	16d-	.
.	16c	8dd-
.	16B-	.
=61	=61	=61
16B-]	8en	8g
16G	.	.
16A-	8f	16cc
16c	.	16ddn
16B-	8g	8een
16A-	.	.
16G	8a-	8ff
16F	.	.
=62	=62	=62
16En	8b-	8gg
16F	.	.
16G	16b-	8ff
16A-	16a-	.
16G	[4b-	8een
16F	.	.
16En	.	8ff
16Dn	.	.
=63	=63	=63
8C	16b-]	[4gg
.	16een	.
8C	16dd-X	.
.	16cc	.
8C	[4b-	16gg]
.	.	16ff
16B-	.	16ee
16G	.	16ff
=64	=64	=64
8En	16b-]	[4gg
.	16een	.
8E	16dd-X	.
.	16cc	.
8E	4b-	16gg]
.	.	16ff
16d-	.	16ee
16B-	.	16ff
=65	=65	=65
8G	4r	16bb-
.	.	16ff
8G	.	16een
.	.	16ddn
8G	[4b-	16ee
.	.	16ff
16f	.	[8gg
16en	.	.
=66	=66	=66
[2f	16b-]	8gg]
.	16g	.
.	16a-	16ff
.	16dd-	16een
.	16cc	8ff
.	16b-	.
.	16a-	8gg
.	16g	.
=67	=67	=67
16f]	8f	8aa-
16en	.	.
16f	8cc	8aa-
16g	.	.
16f	8cc	[4aa-
16e-	.	.
16d-	8aa-	.
16c	.	.
=68	=68	=68
8d-	16b-	2aa-]
.	16cc	.
8f	16dd-	.
.	16cc	.
8d-	16b-	.
.	16cc	.
8B-	16dd-	.
.	16cc	.
=69	=69	=69
16e-	8b-	8gg
16d-	.	.
16e-	8b-	8gg
16f	.	.
16e-	8b-	[4gg
16d-	.	.
16c	8gg	.
16B-	.	.
=70	=70	=70
8c	16a-	2gg]
.	16b-	.
8e-	16cc	.
.	16b-	.
8c	16a-	.
.	16b-	.
8A-	16cc	.
.	16b-	.
=71	=71	=71
16d-	8a-	4ff
16e-	.	.
16d-	8a-	.
16c	.	.
16B-	[4dd-	8r
16A-	.	.
16G	.	8ff
16F	.	.
=72	=72	=72
16G	8dd-]	4ee-
16B-	.	.
16An	16cc	.
16G	16b-	.
16F	8an	8r
16E-	.	.
16D-	8r	8ff
16C	.	.
=73	=73	=73
*	*clefF4	*
4D-	16r	8b-
.	16F	.
.	16G	8b-
.	16An	.
16r	8B-	8b-
16D-	.	.
16E-	8r	16gg-
16F	.	16ee-
=74	=74	=74
8G-	16r	8an
.	16c	.
8r	16e-	8a
.	16d-	.
4r	16c	16a
.	16B-	16b-
.	16An	16cc
.	16Gn	16dd-
=75	=75	=75
16r	16F	16ee-
16B-	16r	16dd-
16An	8r	16cc
16G	.	16dd-
16F	8r	16ee-
16E-	.	16gg-
16D-	8cc	16ff
16C	.	16ee-
=76	=76	=76
*	*staff:4	*
*	*clefG2	*
16BB-	8f	8dd-
16C	.	.
16D-	8f	8dd-
16C	.	.
16BB-	8f	8dd-
16AA-	.	.
16GG	16dd-	8r
16FF	16b-	.
=77	=77	=77
16GG	8en	8dd-
16AA-	.	.
16BB-	8e	8dd-
16AA-	.	.
16GG	16e	8dd-
16FF	16f	.
16EEn	16g	8r
16DDn	16a-	.
=78	=78	=78
8CC	16b-	8en
.	16a-	.
8EEn	16g	8r
.	16a-	.
8GG	16b-	8r
.	16dd-	.
[8C	16cc	8een
.	16b-	.
=79	=79	=79
16C]	8a-	8ff
16FF	.	.
16AA-	8a-	8cc
16C	.	.
16F	[4a-	8cc
16A-	.	.
16G	.	8aa-
16F	.	.
=80	=80	=80
8d-	2a-]	16b-
.	.	16cc
8B-	.	16dd-
.	.	16cc
8G	.	16b-
.	.	16cc
8F	.	16dd-
.	.	16cc
=81	=81	=81
16CC	8g	8b-
16EEn	.	.
16GG	8g	8b-
16C	.	.
16En	[4g	8b-
16G	.	.
16F	.	8gg
16E	.	.
=82	=82	=82
8c	2g]	16a-
.	.	16b-
8A-	.	16cc
.	.	16b-
8F	.	16a-
.	.	16b-
8En	.	16cc
.	.	16b-
=83	=83	=83
16CC	8f	8a-
16FF	.	.
16AA-	8f	8a-
16C	.	.
16F	[4f	8a-
16A-	.	.
16G	.	8ff
16F	.	.
=84	=84	=84
8B-	8f]	16g
.	.	16a-
8G	8en	16b-
.	.	16a-
8En	8r	16g
.	.	16dd-
8C	8e	16cc
.	.	16b-
=85	=85	=85
8D-	4f	8.a-
8BB-	.	.
.	.	16g
8C	4en	8.g
8CC	.	.
.	.	16f
=86	=86	=86
4.FF	4.f;y	4.f;
==	==	==
*-	*-	*-
!!!AFR:  fugue
!!!EFL:  72/96
!!!END:  1994/02/10/
!!!VID:  3726723875 Bach, BWV 881-02
!!!AST:  Baroque
!!!OCY:  Deutschland
!!!ODT:  1742///
!!!PDT:  1801///
!!!EED:  Walter Hewlett
!!!ENC:  Walter Hewlett
!!!YOR:  Bach Gesellschaft Edition xiv
!!!AFT:  enhanced SCORE
!!!RDT:  2011/10/07/ by Andreas Kornstaedt using massScr2hmd
!!!SCA1: Thematisch-systematisches Verzeichnis der musikalischen Werke 
!!!SCA2: Johann Sebastian Bach: Bach-Werke-Verzeichnis (Schmieder)
!!!YEC1: Copyright 1994, 2000 Center for Computer Assisted Research 
!!!YEC2: in the Humanities
!!!YEM1: Rights to all derivative editions reserved.
!!!YEM2: Refer to licensing agreement for further details.
!!!YEN:  United States of America
!!!ref:  @{OTL}, @{SCT}
!!muse2ps: T^@{OTL} @{ONM} in @{OKY}^C^J.S. Bach\n@{SCT}-@{OMV}^
!!muse2ps: u^@{OPR@ENG}, @{OVM@ENG}^j
